X: 5
T: Black Jack
M:6/8
R:jig
L:1/8
Z:added by Alf warnock alf0@rogers.com
K:G
D3|G GFG|"C"ABA -AGA|"G"BcB BAG|"C"ABA "D7"AFD|"G"G2B "C"EFG|
"D7"DEF "G"G2:|G|"G"B2d -dcB|"C"dee "D7"d2c|"G"B2d -dcB|"C"dee "D7"d2c|
"Em"B2B -BAG|"Am"ABA "D7"AGA|"G"BcB BAG|"C"ABA "D7"AGF|"Em"G2B "Am"EFG|"D7"DEF "G"G2|]
% C:\aaa\EnglishCountry\ECD02.abc
